lib/images/icon_kagariseo.svg

<svg width="100" height="62" viewBox="0 0 100 62" fill="none" xmlns="http://www.w3.org/2000/svg">
<path d="M20.0015 21.0984H79.9984V53.0948C79.9848 54.1217 79.5759 55.1039 78.8565 55.8377C78.1371 56.5714 77.1624 57.0005 76.1347 57.0358H24.0031C22.9513 57.0359 21.9417 56.6225 21.1929 55.885C20.444 55.1474 20.016 54.1451 20.0015 53.0948V21.0984Z" fill="white"/>
<path d="M20.0015 13.1063C19.9868 12.5724 20.0794 12.0409 20.2739 11.5432C20.4683 11.0456 20.7608 10.592 21.1338 10.2091C21.5069 9.82631 21.953 9.52206 22.4459 9.31438C22.9387 9.1067 23.4682 8.9998 24.0032 9H76.1348C77.1913 9.03599 78.1907 9.48804 78.9146 10.2574C79.6386 11.0268 80.0282 12.051 79.9984 13.1063V21.0986H20.0015V13.1063Z" fill="#FF8B76"/>
<path opacity="0.15" d="M20.0015 21.0986H24.0032V56.9258C22.9699 56.9267 21.9764 56.5284 21.2305 55.8144C20.4847 55.1004 20.0443 54.1259 20.0015 53.095V21.0986ZM20.0015 13.1063C19.9868 12.5724 20.0794 12.0409 20.2739 11.5432C20.4683 11.0456 20.7608 10.592 21.1338 10.2091C21.5069 9.82631 21.953 9.52206 22.4459 9.31438C22.9387 9.1067 23.4682 8.9998 24.0032 9V21.0986H20.0015V13.1063Z" fill="#003B85"/>
<path d="M79.9981 20.9883V53.095C79.9845 54.1218 79.5756 55.104 78.8562 55.8378C78.1368 56.5716 77.1622 57.0007 76.1345 57.036H24.0029C22.9511 57.0361 21.9415 56.6227 21.1926 55.8851C20.4437 55.1476 20.0157 54.1453 20.0012 53.095V21.0986M79.9981 21.0986V13.1063C80.0279 12.051 79.6383 11.0268 78.9143 10.2574C78.1904 9.48804 77.191 9.03599 76.1345 9H24.0029C22.9416 9 21.9237 9.42102 21.1733 10.1704C20.4228 10.9198 20.0012 11.9363 20.0012 12.9961V20.9883L79.9981 21.0986ZM79.9981 20.9883H20.0012H79.9981Z" stroke="#2D4267" stroke-width="2" stroke-linecap="round" stroke-linejoin="round"/>
<circle cx="28.5656" cy="15" r="1" transform="rotate(-180 28.5656 15)" stroke="#2E4369" stroke-width="2"/>
<circle cx="35.7705" cy="15" r="1" transform="rotate(-180 35.7705 15)" stroke="#2E4369" stroke-width="2"/>
<circle cx="42.9754" cy="15" r="1" transform="rotate(-180 42.9754 15)" stroke="#2E4369" stroke-width="2"/>
<path d="M59.8494 38.3755C56.9407 42.428 53.3771 45.9546 49.3089 48.8067C48.4939 49.3658 48.023 48.5958 48.512 47.9725C51.5915 44.0728 55.1314 40.5697 59.0525 37.5414C59.7317 37.0831 60.275 37.7614 59.8494 38.3755ZM56.0461 34.3882C56.5532 33.6732 56.0914 32.9491 55.2493 33.5541C54.7422 33.9115 46.7734 41.0887 45.2883 42.647C43.8394 41.382 42.3091 40.0621 41.9469 39.7688C41.8302 39.6683 41.679 39.6186 41.5263 39.6306C41.3736 39.6426 41.2318 39.7154 41.1319 39.8329C41.0466 39.9391 41 40.0719 41 40.2087C41 40.3456 41.0466 40.4783 41.1319 40.5846C42.2035 42.1066 43.3775 43.5522 44.6454 44.911C44.7971 45.1167 45.0224 45.2539 45.2729 45.2934C45.5235 45.3328 45.7794 45.2712 45.9856 45.1218L46.1123 45.0118C49.8287 41.8825 53.1634 38.3162 56.0461 34.3882ZM45.4151 37.1381C47.859 35.3037 50.1515 33.2712 52.27 31.0608C52.4547 30.8735 52.5584 30.6197 52.5584 30.355C52.5584 30.0904 52.4547 29.8366 52.27 29.6492L52.2157 29.6034C51.9712 29.4293 49.5987 27.321 49.3361 27.1285C48.7927 26.7436 48.1498 27.2844 48.512 27.9443C48.8742 28.6043 49.5262 29.6492 49.9247 30.2817C49.5896 30.5842 45.1162 35.7081 44.6454 36.3406C44.1745 36.9731 44.6454 37.7339 45.4422 37.1747L45.4151 37.1381Z" fill="#2E4369"/>
<path d="M79 5.5V2" stroke="#2E4369" stroke-width="2" stroke-linecap="round"/>
<path d="M83 7.182L85.5 4.68198" stroke="#2E4369" stroke-width="2" stroke-linecap="round"/>
<path d="M84 12L87.5 12" stroke="#2E4369" stroke-width="2" stroke-linecap="round"/>
</svg>

<svg width="100" height="62" fill="none" xmlns="http://www.w3.org/2000/svg"><path d="M20.002 21.098h59.996v31.997a3.994 3.994 0 01-1.142 2.743 4.005 4.005 0 01-2.721 1.198H24.003a4.004 4.004 0 01-2.81-1.151A3.994 3.994 0 0120 53.095V21.098z" fill="#fff"/><path d="M20.002 13.106a3.992 3.992 0 012.444-3.792A4.006 4.006 0 0124.003 9h52.132a4.004 4.004 0 012.78 1.257 3.993 3.993 0 011.083 2.85v7.992H20.001v-7.993z" fill="#FF8B76"/><path opacity=".15" d="M20.002 21.099h4.001v35.827a4.005 4.005 0 01-2.773-1.112 3.994 3.994 0 01-1.229-2.719V21.099zm0-7.993a3.992 3.992 0 012.444-3.792A4.006 4.006 0 0124.003 9v12.099h-4.002v-7.993z" fill="#003B85"/><path d="M79.998 20.988v32.107a3.993 3.993 0 01-1.142 2.743 4.004 4.004 0 01-2.721 1.198H24.003a4.004 4.004 0 01-2.81-1.15A3.993 3.993 0 0120 53.094V21.099m59.997 0v-7.993a3.993 3.993 0 00-1.084-2.849A4.004 4.004 0 0076.134 9h-52.13c-1.061 0-2.08.421-2.83 1.17a3.993 3.993 0 00-1.172 2.826v7.992l59.997.11zm0-.11H20.001h59.997z" stroke="#2D4267" stroke-width="2" stroke-linecap="round" stroke-linejoin="round"/><circle cx="28.566" cy="15" r="1" transform="rotate(-180 28.566 15)" stroke="#2E4369" stroke-width="2"/><circle cx="35.77" cy="15" r="1" transform="rotate(-180 35.77 15)" stroke="#2E4369" stroke-width="2"/><circle cx="42.975" cy="15" r="1" transform="rotate(-180 42.975 15)" stroke="#2E4369" stroke-width="2"/><path d="M59.85 38.376a44.238 44.238 0 01-10.541 10.43c-.815.56-1.286-.21-.797-.834a60.74 60.74 0 0110.54-10.43c.68-.459 1.223.22.797.834zm-3.804-3.988c.507-.715.045-1.439-.797-.834-.507.357-8.476 7.535-9.96 9.093-1.45-1.265-2.98-2.585-3.342-2.878a.575.575 0 00-.815.064.6.6 0 000 .752 40.61 40.61 0 003.513 4.326.96.96 0 001.34.21l.127-.11a61.296 61.296 0 009.934-10.623zm-10.63 2.75a56.355 56.355 0 006.854-6.077 1.005 1.005 0 000-1.412l-.054-.046c-.245-.174-2.617-2.282-2.88-2.475-.543-.384-1.186.156-.824.816.362.66 1.014 1.705 1.413 2.338-.335.302-4.809 5.426-5.28 6.059-.47.632 0 1.393.797.834l-.027-.037z" fill="#2E4369"/><path d="M79 5.5V2m4 5.182l2.5-2.5M84 12h3.5" stroke="#2E4369" stroke-width="2" stroke-linecap="round"/></svg>
